source/images/logo/wordpress.svg

<svg fill="none" height="73" viewBox="0 0 73 73" width="73" xmlns="http://www.w3.org/2000/svg" xmlns:xlink="http://www.w3.org/1999/xlink"><clipPath id="a"><path d="m.18103.259766h72v72h-72z"/></clipPath><g clip-path="url(#a)" fill="#003c56"><path d="m36.1172 2.41593c6.756 0 13.3323 2.01243 18.9024 5.78572 5.4263 3.66545 9.7027 8.84025 12.2542 14.87755 4.4561 10.5293 3.2702 22.5679-3.1264 32.0191-3.6655 5.4264-8.8403 9.7028-14.8776 12.2542-10.5293 4.4561-22.5679 3.2702-32.0191-3.1264-5.4264-3.6655-9.70276-8.8403-12.25423-14.8776-4.456078-10.5293-3.27019-22.5679 3.12645-32.0191 3.66548-5.4263 8.84028-9.70273 14.87758-12.25419 4.1326-1.76087 8.6246-2.65928 13.1167-2.65928zm0-2.156164c-19.8368 0-35.93617 16.099434-35.93617 35.936134s16.09937 35.9361 35.93617 35.9361c19.8367 0 35.9361-16.0994 35.9361-35.9361s-16.0994-35.936134-35.9361-35.936134z"/><path d="m6.17529 36.2047c0 11.4636 6.54041 21.957 16.89001 26.9521l-14.30261-39.1344c-1.72493 3.8451-2.5874 7.9778-2.5874 12.1823zm50.16681-1.5093c0-3.7014-1.3296-6.2529-2.4796-8.2653-1.1499-2.0124-2.9467-4.5639-2.9467-7.0076 0-2.4436 2.0843-5.3185 5.031-5.3185h.3953c-12.1823-11.17614-31.1207-10.34961-42.2968 1.8687-1.0781 1.1859-2.0843 2.4436-2.9468 3.7733h1.9406c3.1264 0 7.9778-.3953 7.9778-.3953 1.6171-.1078 1.7968 2.2639.1797 2.4796 0 0-1.6171.1796-3.4139.2875l10.8886 32.4503 6.5404-19.6571-4.6717-12.7932c-1.6171-.1079-3.1265-.2875-3.1265-.2875-1.6171-.1078-1.4374-2.5515.1797-2.4796 0 0 4.9592.3953 7.87.3953 2.9109 0 7.9779-.3953 7.9779-.3953 1.6171-.1078 1.7968 2.2639.1796 2.4796 0 0-1.6171.1796-3.4139.2875l10.8168 32.1987 3.0905-9.7746c1.3656-4.2764 2.1921-7.295 2.1921-9.8824zm-19.7289 4.0967-8.984 26.1256c6.0372 1.7609 12.4698 1.6171 18.3993-.4672l-.2157-.3953zm25.7662-16.9618c.1438 1.0062.2156 2.0483.2156 3.0905 0 3.0545-.575 6.4685-2.264 10.7089l-9.1637 26.449c14.0151-8.1575 19.0102-26.0177 11.2121-40.2484z"/></g></svg>

<svg width="73" height="73" viewBox="0 0 73 73" fill="none" xmlns="http://www.w3.org/2000/svg">
<g clip-path="url(#clip0)">
<path d="M36.1172 2.41593C42.8732 2.41593 49.4495 4.42836 55.0196 8.20165C60.4459 11.8671 64.7223 17.0419 67.2738 23.0792C71.7299 33.6085 70.544 45.6471 64.1474 55.0983C60.4819 60.5247 55.3071 64.8011 49.2698 67.3525C38.7405 71.8086 26.7019 70.6227 17.2507 64.2261C11.8243 60.5606 7.54794 55.3858 4.99647 49.3485C0.540392 38.8192 1.72628 26.7806 8.12292 17.3294C11.7884 11.9031 16.9632 7.62667 23.0005 5.07521C27.1331 3.31434 31.6251 2.41593 36.1172 2.41593ZM36.1172 0.259766C16.2804 0.259766 0.18103 16.3592 0.18103 36.1959C0.18103 56.0326 16.2804 72.132 36.1172 72.132C55.9539 72.132 72.0533 56.0326 72.0533 36.1959C72.0533 16.3592 55.9539 0.259766 36.1172 0.259766Z" fill="#003C56"/>
<path d="M6.17529 36.2047C6.17529 47.6683 12.7157 58.1617 23.0653 63.1568L8.76269 24.0224C7.03776 27.8675 6.17529 32.0002 6.17529 36.2047ZM56.3421 34.6954C56.3421 30.994 55.0125 28.4425 53.8625 26.4301C52.7126 24.4177 50.9158 21.8662 50.9158 19.4225C50.9158 16.9789 53.0001 14.104 55.9468 14.104H56.3421C44.1598 2.92786 25.2214 3.75439 14.0453 15.9727C12.9672 17.1586 11.961 18.4163 11.0985 19.746H13.0391C16.1655 19.746 21.0169 19.3507 21.0169 19.3507C22.634 19.2429 22.8137 21.6146 21.1966 21.8303C21.1966 21.8303 19.5795 22.0099 17.7827 22.1178L28.6713 54.5681L35.2117 34.911L30.54 22.1178C28.9229 22.0099 27.4135 21.8303 27.4135 21.8303C25.7964 21.7225 25.9761 19.2788 27.5932 19.3507C27.5932 19.3507 32.5524 19.746 35.4632 19.746C38.3741 19.746 43.4411 19.3507 43.4411 19.3507C45.0582 19.2429 45.2379 21.6146 43.6207 21.8303C43.6207 21.8303 42.0036 22.0099 40.2068 22.1178L51.0236 54.3165L54.1141 44.5419C55.4797 40.2655 56.3062 37.2469 56.3062 34.6595L56.3421 34.6954ZM36.6132 38.7921L27.6292 64.9177C33.6664 66.6786 40.099 66.5348 46.0285 64.4505L45.8128 64.0552L36.6132 38.7921ZM62.3794 21.8303C62.5232 22.8365 62.595 23.8786 62.595 24.9208C62.595 27.9753 62.02 31.3893 60.331 35.6297L51.1673 62.0787C65.1824 53.9212 70.1775 36.061 62.3794 21.8303Z" fill="#003C56"/>
</g>
<defs>
<clipPath id="clip0">
<rect width="72" height="72" fill="white" transform="translate(0.18103 0.259766)"/>
</clipPath>
</defs>
</svg>
